X:596
T:Miss Watt
R:Reel
C:William Marshall
B:The Athole Collection
M:C|
L:1/8
K:B_
F|~B2 dB FBDF|GdcB cCCc|~B2 dB FBDg|fdcd B/B/B B:|
g|fBdb dfbg|fBdB c/c/c ~cg|fBdB dfbg|fdcd B/B/B ~Bg|fBdB dfbg|
fBdB c/c/c cf|bgeg fdBd|cBcd B/B/B ~B||

